X: 112
M: C|
L: 1/8
K: C
V: 1
(d |\
|: f |\
(e/f/g) dg BGdB | (e/f/g) df AFcA |\
(e/f/g) dg BGdB | (A/B/c) FA fcc :|
|: d |\
|: f |\
(e/f/g) (e/f/g) BGBG | (e/f/g) (e/f/g) AFAF |\
(e/f/g) (e/f/g) BGBG | (A/B/c) FA fcc :|
V: 2 clef=bass middle=d
z |\
g2g2 g2g2 | g2g2 f2f2 | g2g2 g2g2 | f2f2 f2f :|\
|: z | g2g2 g2g2 | g2g2
f2f2 | g2g2 g2g2 | f2f2 f2f :|\
|: z | g2 g2 g2g2 | g2g2 f2f2 | g2g2 g2g2 |
f2f2 f2f :|\
|: z | g2g2 g2g2 | g2g2 f2f2 | g2g2 g2g2 | f2f2 f2f :|

